FINK
CUT[VATER NOAH WEINERFINDER]
REG[Europa, Mitteleuropa, Deutschland]
KEY[F0738A 16  C 6/8]
MEL[  1__1_1_-7_-6_  -5_-6_-4#_-5__-5_
    1_.-71_2_4_2_  -7_.-6-7_1__.
    2__2_2__-7_  -6_-7_1_-7__-5_
    2__2_2_1_-7_  -6_-5_-6_-5__0_
    1__-5_3__1_  5_3_1_4__.
    3__3_4_.32_  1_2_-7_1__0_ //] >>
FCT[Geselligkeits -, Trink - Lied]
